public/avatar/hat/87.svg

<svg xmlns:xlink="http://www.w3.org/1999/xlink" height="92.9" width="100.7" xmlns="http://www.w3.org/2000/svg"><use height="24.5" transform="translate(15.25 39.8)" width="42.25" xlink:href="#a"/><defs><g id="a"><path d="m-8.4 1.2 1.1-.55q-2.15-1.1-2.75-2.25-3.4.45-4.45 3.65 1.8 1.7 3.5 1.3l1.05-.3L-8.4 1.2M7.45-.5H7.1L4.2 1.25l.6.2q.6.2 2.45 1.25l4 1.8q1.7.6 2.3-.3.25-1.1-.4-2.25-1.3-2.3-5.7-2.45m-.4-6.8q1.15 1 1.65 2.1 3.9-.6 6.2 1.7 3.6 3.6 2.3 6.7-.95 2.35-4.5 3.95l-3.65.2-.3-.05q-.45-.15-.9-.7l-.05-.05-.1-.2q-4.15 3.2-6.5 3.2.35-3.9-2-7.3l-1.7.2-.65.85Q-3.9 4.8-4.9 7.95q-1.6 2.7-4.6 3.75-3.45 1.25-6.35.8-1.1-.2-2.3-1.15L-20.1 9.7l-2.3-1.95 5.95.1q2.3-.55 4-2-3.2.35-5.2-1.5-2.75-2.5-1.2-5.85 3-6.75 10.9-3.8Q-3.7-8.15-1.4-3.5 1.85-12 7.05-7.3" fill="red" fill-rule="evenodd" transform="translate(23.4 9.95)"/><path d="M30.45 2.65q-5.2-4.7-8.45 3.8-2.3-4.65-6.55-1.8-7.9-2.95-10.9 3.8Q3 11.8 5.75 14.3q2 1.85 5.2 1.5-1.7 1.45-4 2L1 17.7l2.3 1.95 1.95 1.65q1.2.95 2.3 1.15 2.9.45 6.35-.8 3-1.05 4.6-3.75 1-3.15 1.75-4.65l.65-.85 1.7-.2q2.35 3.4 2 7.3 2.35 0 6.5-3.2l.1.2.05.05q.45.55.9.7l.3.05 3.65-.2q3.55-1.6 4.5-3.95 1.3-3.1-2.3-6.7-2.3-2.3-6.2-1.7-.5-1.1-1.65-2.1m.4 6.8q4.4.15 5.7 2.45.65 1.15.4 2.25-.6.9-2.3.3l-4-1.8Q28.8 11.6 28.2 11.4l-.6-.2 2.9-1.75h.35M15 11.15 13.45 13l-1.05.3q-1.7.4-3.5-1.3 1.05-3.2 4.45-3.65.6 1.15 2.75 2.25l-1.1.55" fill="none" stroke="#960000" stroke-linecap="round" stroke-linejoin="round" stroke-width="2"/><path d="M-8.95-4.55q3.85-3.3 6.4-.65Q-1.3-3.9-.8-1.95l-2.6 4Q-6 1.45-8 .3q-4-2.3-.95-4.85" fill="#bd0000" fill-rule="evenodd" transform="translate(23.4 9.95)"/><path d="M.3 2.8-2.5.3q.65-3.45 2.2-6.1 3.05-5.35 7.35-1.5Q11.4-3.4 6.3.1q-1.6 1.1-3.95 2L.3 2.8" fill="#bd0000" fill-rule="evenodd" transform="translate(23.4 9.95)"/><path d="M7.45-.5 3.4-.1l-.95.5 8.8 4.1q1.7.6 2.3-.3.25-1.1-.4-2.25-1.3-2.3-5.7-2.45M.05-1.9q10.9-5.55 14.85-1.6 3.6 3.6 2.3 6.7-.95 2.35-4.5 3.95-3 1.4-5.05-.95Q5.3 3.6 1.4 2.15l-3.1.25q-2 .3-2.15-.9Q-4 .35-2.45-.65L.05-1.9" fill="red" fill-rule="evenodd" transform="translate(23.4 9.95)"/><path d="M11.25 4.5q1.7.6 2.3-.3l-.5 1.7L12 7.05l-1.4.6-1.85-.35q-.45-.15-.9-.7l-.05-.05-.15-.35-7.1-5.05L2.45.4q7.25 3.55 8.8 4.1" fill="#bd0000" fill-rule="evenodd" transform="translate(23.4 9.95)"/><path d="M-14.5 2.05q1.8 1.7 3.5 1.3 3.05-.7 7.35-3.15-2.6-1.85-5.6-1.85-4.05 0-5.25 3.7m-4.35-3.55q1.65-3.65 5.3-4.4 4.7-1 11.25 3.8Q1.3.6-.65 1.6q-.85.45-2.95.75-2 .3-2.95.9l-2.7 1.35-2.7 1.2q-3.45.6-5.7-1.45-2.75-2.5-1.2-5.85" fill="red" fill-rule="evenodd" transform="translate(23.4 9.95)"/><path d="m-3.65.2-3.2 3.05-2.3 1.7-2.8.85h-1.15l-.8-.35-.7-1.65.1-1.75q1.8 1.7 3.5 1.3 3.05-.7 7.35-3.15" fill="#bd0000" fill-rule="evenodd" transform="translate(23.4 9.95)"/><path d="M-1-3.15q2.8 0 3.05 2.6Q2.35 2-1.1 2.2q-3.45.15-3.1-2.6.4-2.75 3.2-2.75" fill="red" fill-rule="evenodd" transform="translate(23.4 9.95)"/><path d="M.9 1.2q3.5.15 3.7 2.5.1 1.1-1 2.2Q1.95 7.4.4 7.45l-.05.25.1-.05q.9.5.5 1.45l.45.7.85.1 1.6-1.55.4-.05L7.2 6.5l-.05.2q0 1.1 1.1 1.5-1.65 1.75-3.85 3L3 12l-.85.35-.5.2q-1.7.6-2.15-.8L-.8 11-1 8.15l-.05-.25V6.85L-1 6.3v-.05q-.1-1.6-.5-2.65Q-2.6 1.1.9 1.2" fill="#616082" fill-opacity=".353" fill-rule="evenodd" transform="translate(23.4 9.95)"/><path d="M-.7 2.75Q-2.5 4.2-3.85 7.8q-1.4 3.85-2.75 5.15-1.05 1.1-2.55 1.45-1.75.45-2.6-.5-1.4-1.7-1.1-2.5l3.1-2.55q1.1-.85 2.3-2.9 1.35-2.3 2.1-3.05Q-4.3 1.85-2 1.6l1.55.25q.7.4-.25 1.15v-.25" fill="#616082" fill-opacity=".353" fill-rule="evenodd" transform="translate(23.4 9.95)"/><path d="M-9.5 11.7q-3.45 1.25-6.35.8-1.1-.2-2.3-1.15L-20.1 9.7l-2.3-1.95 5.95.1q3.2-.75 5.4-3.4L-8.4 1.2q2.05-1.35 5.95-1 1.3.15 3.7 1.5l-2.55.05q-1.1.2-1.85 1.55-.75 1.5-1.75 4.65-1.6 2.7-4.6 3.75" fill="red" fill-rule="evenodd" transform="translate(23.4 9.95)"/><path d="M9.8 4.75 5.75 7.8Q3.1 9.55 1.2 9.55 1.55 4.5-1.55 1.3l6.35.15q5.65 2.8 5 3.3" fill="red" fill-rule="evenodd" transform="translate(23.4 9.95)"/><path d="M3.85 1.45Q5.7 1.2 6.2 2.55q.4 1.2-1.9 1.7-2.65.35-2.5-.85.1-.65 1.05-1.45.9-.8 1.6-.75l-.6.25" fill="#ff7a7a" fill-rule="evenodd" transform="translate(23.4 9.95)"/><path d="m.85 1.05 5.35 1.5q2.05 1 3.6 2.2" fill="none" stroke="#ff6e6e" stroke-linecap="round" stroke-linejoin="round" transform="translate(23.4 9.95)"/><path d="M-17.9-3q.5-.35 1.25-1.5 1.6-1 2.25-.55l.9 1.15 1.2.8 2.05 1.4-2.15 1.1-2.25.05Q-17.15-1.7-17.9-3l-.15.05.05-.25.1.2M10.45-.45l.75-.9 1.55-2.1q.85-.95 1.5-.7l1.1.65q1.4 1.55 1.15 3.05-.1.8-.9 1.7-.85 1-1.6 1.1-.5.1-.65-.2l-.35-.7-2-1.2q-.7-.4-.55-.7M1-1.55v.05q-.3.95-.9.9-.9-.15-.9-.8-.05-.9.85-.95.95-.05.95.8" fill="#ff7a7a" fill-rule="evenodd" transform="translate(23.4 9.95)"/><path d="m-.8-3.55 1.05.2Q1.4-3 2-2.15q.95 1.35.2 3" fill="none" stroke="#bd0000" stroke-linecap="round" stroke-linejoin="round" transform="translate(23.4 9.95)"/><path d="M-1.15 1.65-3 2.95l-2.5 5.2q-1.35 2.45-5.15 3.5l-5.85.3M-4.15-.35Q-9-3.05-12.5-.85q-3.5 2.15-1.4 6.3" fill="none" stroke="#ff6e6e" stroke-linecap="round" stroke-linejoin="round" transform="translate(23.4 9.95)"/><path d="M3.35-.35 7.1-.7q4.1.05 5.9 2.15 2.65 3.05 0 4.8l-3.15 1.2" fill="none" stroke="#ff7a7a" stroke-linecap="round" stroke-linejoin="round" transform="translate(23.4 9.95)"/><path d="M13.65-2.1q1.4-1.2 1.95.3.7 1.85-3.35 1.9.05-1.1 1.4-2.2m-9.3 4.25h.15l1 .2q-.4.75-1.4 1.15l-1.9-.05q.55-1.2 2.15-1.3M-16.3-4.7q3.5 1.4 4.45 3.45-2.2.2-3.65-1.25-3.4-3.15-.3-2.35l-.5.15" fill="#ffd1d1" fill-rule="evenodd" transform="translate(23.4 9.95)"/><path d="M-7.65 1.6q1.1.05 2.25 1Q-4 3.8-4 5.1q-1.95.75-3.95-1.15Q-9 2.9-8.95 2.2q.05-.7 1.3-.6" fill="#ff7a7a" fill-rule="evenodd" transform="translate(23.4 9.95)"/><path d="M12.3 8q1.15.65 2.2 2.65.85.95 3.85 1.75-1.15.95-5.75.7-2.05-3.2-2.15-4.45l1.6-.75.25.1" fill="red" fill-rule="evenodd" transform="translate(23.4 9.95)"/><path d="M12.3 8q1.15.65 2.2 2.65.85.95 3.85 1.75-1.15.95-5.75.7-2.05-3.2-2.15-4.45l1.6-.75" fill="none" stroke="#9c0f0f" stroke-linecap="round" stroke-linejoin="round" transform="translate(23.4 9.95)"/></g></defs></svg>

<?xml version="1.0" encoding="UTF-8" standalone="no"?>
<svg xmlns:xlink="http://www.w3.org/1999/xlink" height="92.9px" width="100.7px" xmlns="http://www.w3.org/2000/svg">
  <g transform="matrix(1.0, 0.0, 0.0, 1.0, 38.65, 49.75)">
    <use height="24.5" transform="matrix(1.0, 0.0, 0.0, 1.0, -23.4, -9.95)" width="42.25" xlink:href="#shape0"/>
  </g>
  <defs>
    <g id="shape0" transform="matrix(1.0, 0.0, 0.0, 1.0, 23.4, 9.95)">
      <path d="M-8.4 1.2 L-7.3 0.65 Q-9.45 -0.45 -10.05 -1.6 -13.45 -1.15 -14.5 2.05 -12.7 3.75 -11.0 3.35 L-9.95 3.05 -8.4 1.2 M7.45 -0.5 L7.1 -0.5 4.2 1.25 4.8 1.45 Q5.4 1.65 7.25 2.7 L11.25 4.5 Q12.95 5.1 13.55 4.2 13.8 3.1 13.15 1.95 11.85 -0.35 7.45 -0.5 M7.05 -7.3 Q8.2 -6.3 8.7 -5.2 12.6 -5.8 14.9 -3.5 18.5 0.1 17.2 3.2 16.25 5.55 12.7 7.15 L9.05 7.35 8.75 7.3 Q8.3 7.15 7.85 6.6 L7.8 6.55 7.7 6.35 Q3.55 9.55 1.2 9.55 1.55 5.65 -0.8 2.25 L-2.5 2.45 -3.15 3.3 Q-3.9 4.8 -4.9 7.95 -6.5 10.65 -9.5 11.7 -12.95 12.95 -15.85 12.5 -16.95 12.3 -18.15 11.35 L-20.1 9.7 -22.4 7.75 -16.45 7.85 Q-14.15 7.3 -12.45 5.85 -15.65 6.2 -17.65 4.35 -20.4 1.85 -18.85 -1.5 -15.85 -8.25 -7.95 -5.3 -3.7 -8.15 -1.4 -3.5 1.85 -12.0 7.05 -7.3" fill="#ff0000" fill-rule="evenodd" stroke="none"/>
      <path d="M7.05 -7.3 Q1.85 -12.0 -1.4 -3.5 -3.7 -8.15 -7.95 -5.3 -15.85 -8.25 -18.85 -1.5 -20.4 1.85 -17.65 4.35 -15.65 6.2 -12.45 5.85 -14.15 7.3 -16.45 7.85 L-22.4 7.75 -20.1 9.7 -18.15 11.35 Q-16.95 12.3 -15.85 12.5 -12.95 12.95 -9.5 11.7 -6.5 10.65 -4.9 7.95 -3.9 4.8 -3.15 3.3 L-2.5 2.45 -0.8 2.25 Q1.55 5.65 1.2 9.55 3.55 9.55 7.7 6.35 L7.8 6.55 7.85 6.6 Q8.3 7.15 8.75 7.3 L9.05 7.35 12.7 7.15 Q16.25 5.55 17.2 3.2 18.5 0.1 14.9 -3.5 12.6 -5.8 8.7 -5.2 8.2 -6.3 7.05 -7.3 M7.45 -0.5 Q11.85 -0.35 13.15 1.95 13.8 3.1 13.55 4.2 12.95 5.1 11.25 4.5 L7.25 2.7 Q5.4 1.65 4.8 1.45 L4.2 1.25 7.1 -0.5 7.45 -0.5 M-8.4 1.2 L-9.95 3.05 -11.0 3.35 Q-12.7 3.75 -14.5 2.05 -13.45 -1.15 -10.05 -1.6 -9.45 -0.45 -7.3 0.65 L-8.4 1.2" fill="none" stroke="#960000" stroke-linecap="round" stroke-linejoin="round" stroke-width="2.0"/>
      <path d="M-8.95 -4.55 Q-5.1 -7.85 -2.55 -5.2 -1.3 -3.9 -0.8 -1.95 L-3.4 2.05 Q-6.0 1.45 -8.0 0.3 -12.0 -2.0 -8.95 -4.55" fill="#bd0000" fill-rule="evenodd" stroke="none"/>
      <path d="M0.3 2.8 L-2.5 0.3 Q-1.85 -3.15 -0.3 -5.8 2.75 -11.15 7.05 -7.3 11.4 -3.4 6.3 0.1 4.7 1.2 2.35 2.1 L0.3 2.8" fill="#bd0000" fill-rule="evenodd" stroke="none"/>
      <path d="M7.45 -0.5 L3.4 -0.1 2.45 0.4 11.25 4.5 Q12.95 5.1 13.55 4.2 13.8 3.1 13.15 1.95 11.85 -0.35 7.45 -0.5 M0.05 -1.9 Q10.95 -7.45 14.9 -3.5 18.5 0.1 17.2 3.2 16.25 5.55 12.7 7.15 9.7 8.55 7.65 6.2 5.3 3.6 1.4 2.15 L-1.7 2.4 Q-3.7 2.7 -3.85 1.5 -4.0 0.35 -2.45 -0.65 L0.05 -1.9" fill="#ff0000" fill-rule="evenodd" stroke="none"/>
      <path d="M11.25 4.5 Q12.95 5.1 13.55 4.2 L13.05 5.9 12.0 7.05 10.6 7.65 8.75 7.3 Q8.3 7.15 7.85 6.6 L7.8 6.55 7.65 6.2 0.55 1.15 2.45 0.4 Q9.7 3.95 11.25 4.5" fill="#bd0000" fill-rule="evenodd" stroke="none"/>
      <path d="M-14.5 2.05 Q-12.7 3.75 -11.0 3.35 -7.95 2.65 -3.65 0.2 -6.25 -1.65 -9.25 -1.65 -13.3 -1.65 -14.5 2.05 M-18.85 -1.5 Q-17.2 -5.15 -13.55 -5.9 -8.85 -6.9 -2.3 -2.1 1.3 0.6 -0.65 1.6 -1.5 2.05 -3.6 2.35 -5.6 2.65 -6.55 3.25 L-9.25 4.6 -11.95 5.8 Q-15.4 6.4 -17.65 4.35 -20.4 1.85 -18.85 -1.5" fill="#ff0000" fill-rule="evenodd" stroke="none"/>
      <path d="M-3.65 0.2 L-6.85 3.25 -9.15 4.95 -11.95 5.8 -13.1 5.8 -13.9 5.45 -14.6 3.8 -14.5 2.05 Q-12.7 3.75 -11.0 3.35 -7.95 2.65 -3.65 0.2" fill="#bd0000" fill-rule="evenodd" stroke="none"/>
      <path d="M-1.0 -3.15 Q1.8 -3.15 2.05 -0.55 2.35 2.0 -1.1 2.2 -4.55 2.35 -4.2 -0.4 -3.8 -3.15 -1.0 -3.15" fill="#ff0000" fill-rule="evenodd" stroke="none"/>
      <path d="M0.9 1.2 Q4.4 1.35 4.6 3.7 4.7 4.8 3.6 5.9 1.95 7.4 0.4 7.45 L0.35 7.7 0.45 7.65 Q1.35 8.15 0.95 9.1 L1.4 9.8 2.25 9.9 3.85 8.35 4.25 8.3 7.2 6.5 7.15 6.7 Q7.15 7.8 8.25 8.2 6.6 9.95 4.4 11.2 L3.0 12.0 2.15 12.35 1.65 12.55 Q-0.05 13.15 -0.5 11.75 L-0.8 11.0 -1.0 8.15 -1.05 7.9 -1.05 7.7 -1.05 6.85 -1.0 6.3 -1.0 6.25 Q-1.1 4.65 -1.5 3.6 -2.6 1.1 0.9 1.2" fill="#616082" fill-opacity="0.3529412" fill-rule="evenodd" stroke="none"/>
      <path d="M-0.7 2.75 Q-2.5 4.2 -3.85 7.8 -5.25 11.65 -6.6 12.95 -7.65 14.05 -9.15 14.4 -10.9 14.85 -11.75 13.9 -13.15 12.2 -12.85 11.4 L-9.75 8.85 Q-8.65 8.0 -7.45 5.95 -6.1 3.65 -5.35 2.9 -4.3 1.85 -2.0 1.6 L-0.45 1.85 Q0.25 2.25 -0.7 3.0 L-0.7 2.75" fill="#616082" fill-opacity="0.3529412" fill-rule="evenodd" stroke="none"/>
      <path d="M-9.5 11.7 Q-12.95 12.95 -15.85 12.5 -16.95 12.3 -18.15 11.35 L-20.1 9.7 -22.4 7.75 -16.45 7.85 Q-13.25 7.1 -11.05 4.45 L-8.4 1.2 Q-6.35 -0.15 -2.45 0.2 -1.15 0.35 1.25 1.7 L-1.3 1.75 Q-2.4 1.95 -3.15 3.3 -3.9 4.8 -4.9 7.95 -6.5 10.65 -9.5 11.7" fill="#ff0000" fill-rule="evenodd" stroke="none"/>
      <path d="M9.8 4.75 L5.75 7.8 Q3.1 9.55 1.2 9.55 1.55 4.5 -1.55 1.3 L4.8 1.45 Q10.45 4.25 9.8 4.75" fill="#ff0000" fill-rule="evenodd" stroke="none"/>
      <path d="M3.85 1.45 Q5.7 1.2 6.2 2.55 6.6 3.75 4.3 4.25 1.65 4.6 1.8 3.4 1.9 2.75 2.85 1.95 3.75 1.15 4.45 1.2 L3.85 1.45" fill="#ff7a7a" fill-rule="evenodd" stroke="none"/>
      <path d="M0.85 1.05 L6.2 2.55 Q8.25 3.55 9.8 4.75" fill="none" stroke="#ff6e6e" stroke-linecap="round" stroke-linejoin="round" stroke-width="1.0"/>
      <path d="M-17.9 -3.0 Q-17.4 -3.35 -16.65 -4.5 -15.05 -5.5 -14.4 -5.05 L-13.5 -3.9 -12.3 -3.1 -10.25 -1.7 -12.4 -0.6 -14.65 -0.55 Q-17.15 -1.7 -17.9 -3.0 L-18.05 -2.95 -18.0 -3.2 -17.9 -3.0" fill="#ff7a7a" fill-rule="evenodd" stroke="none"/>
      <path d="M10.45 -0.45 L11.2 -1.35 12.75 -3.45 Q13.6 -4.4 14.25 -4.15 L15.35 -3.5 Q16.75 -1.95 16.5 -0.45 16.4 0.35 15.6 1.25 14.75 2.25 14.0 2.35 13.5 2.45 13.35 2.15 L13.0 1.45 11.0 0.25 Q10.3 -0.15 10.45 -0.45" fill="#ff7a7a" fill-rule="evenodd" stroke="none"/>
      <path d="M1.0 -1.55 L1.0 -1.5 Q0.7 -0.55 0.1 -0.6 -0.8 -0.75 -0.8 -1.4 -0.85 -2.3 0.05 -2.35 1.0 -2.4 1.0 -1.55" fill="#ff7a7a" fill-rule="evenodd" stroke="none"/>
      <path d="M-0.8 -3.55 L0.25 -3.35 Q1.4 -3.0 2.0 -2.15 2.95 -0.8 2.2 0.85" fill="none" stroke="#bd0000" stroke-linecap="round" stroke-linejoin="round" stroke-width="1.0"/>
      <path d="M-1.15 1.65 L-3.0 2.95 -5.5 8.15 Q-6.85 10.6 -10.65 11.65 L-16.5 11.95" fill="none" stroke="#ff6e6e" stroke-linecap="round" stroke-linejoin="round" stroke-width="1.0"/>
      <path d="M-4.15 -0.35 Q-9.0 -3.05 -12.5 -0.85 -16.0 1.3 -13.9 5.45" fill="none" stroke="#ff6e6e" stroke-linecap="round" stroke-linejoin="round" stroke-width="1.0"/>
      <path d="M3.35 -0.35 L7.1 -0.7 Q11.2 -0.65 13.0 1.45 15.65 4.5 13.0 6.25 L9.85 7.45" fill="none" stroke="#ff7a7a" stroke-linecap="round" stroke-linejoin="round" stroke-width="1.0"/>
      <path d="M13.65 -2.1 Q15.05 -3.3 15.6 -1.8 16.3 0.05 12.25 0.1 12.3 -1.0 13.65 -2.1" fill="#ffd1d1" fill-rule="evenodd" stroke="none"/>
      <path d="M4.35 2.15 L4.5 2.15 5.5 2.35 Q5.1 3.1 4.1 3.5 L2.2 3.45 Q2.75 2.25 4.35 2.15" fill="#ffd1d1" fill-rule="evenodd" stroke="none"/>
      <path d="M-16.3 -4.7 Q-12.8 -3.3 -11.85 -1.25 -14.05 -1.05 -15.5 -2.5 -18.9 -5.65 -15.8 -4.85 L-16.3 -4.7" fill="#ffd1d1" fill-rule="evenodd" stroke="none"/>
      <path d="M-7.65 1.6 Q-6.55 1.65 -5.4 2.6 -4.0 3.8 -4.0 5.1 -5.95 5.85 -7.95 3.95 -9.0 2.9 -8.95 2.2 -8.9 1.5 -7.65 1.6" fill="#ff7a7a" fill-rule="evenodd" stroke="none"/>
      <path d="M12.3 8.0 Q13.45 8.65 14.5 10.65 15.35 11.6 18.35 12.4 17.2 13.35 12.6 13.1 10.55 9.9 10.45 8.65 L12.05 7.9 12.3 8.0" fill="#ff0000" fill-rule="evenodd" stroke="none"/>
      <path d="M12.3 8.0 Q13.45 8.65 14.5 10.65 15.35 11.6 18.35 12.4 17.2 13.35 12.6 13.1 10.55 9.9 10.45 8.65 L12.05 7.9" fill="none" stroke="#9c0f0f" stroke-linecap="round" stroke-linejoin="round" stroke-width="1.0"/>
    </g>
  </defs>
</svg>
